prototype_2/assets/icons/game_actors/icon_resource_locator.svg

<svg xmlns="http://www.w3.org/2000/svg" viewBox="0 0 512 512"><path d="M242.563 27.656c-10.062.033-20.126.205-30.188.5l6.094 65.594-61.095-62.563c-31.256 2.57-62.494 6.655-93.75 12.532l34.25 28.405-48.063-.563c35.158 100.168 6.936 182.575-.312 292l95.75 105.844c10-1.326 19.856-2.423 29.563-3.344l21.53-42.156 18.532 28.844 41.5-33.594.813 43.094c82.943-.242 157.734 9.098 235.687 7.813-28.15-73.01-31.13-143.562-31.875-209.157l-33.25-19.125 32.688-33.874c-.43-21.333-1.342-42.006-3.625-61.937l-57.438.718 50.25-41.657c-3.843-15.477-9.052-30.4-16.125-44.718l-29.53-23.906c-53.8-5.488-107.607-8.924-161.408-8.75zm58.718 36.97l7.095 16.624 24.594 57.625 14.092-19.75 8.344-11.688 7.313 12.376 40.655 69.124-16.125 9.47-33.375-56.688-42.438 59.405-15.187-10.875 24-33.594-21.97-51.406-24.56 40.063 11.967 22.625-16.53 8.75-18.25-34.5-24.845 58.187-17.187-7.344 32.53-76.186 7.69-18.03 9.155 17.31 5.313 10.032 28.25-46.125 9.468-15.405zm-194.842 56.25h.093l.126.03.094.03 4.78 1.126.095.032.125.03 4.53 1.19.126.03.125.03 4.282 1.25.126.032.124.03 4.094 1.314.125.03.126.064.22.062-5.845 16.53-.343 1.095h-.03l-.22-.06-3.562-1.157-.25-.063-3.813-1.125-.25-.063-4.062-1.062-.22-.063-4.343-1-.093-.03-.125-.032 1.155-4.906 2.813-13.345zm37.874 13.374l2.657 1.53.186.095.156.125 2.657 1.656.155.125.188.126 2.437 1.688.188.125.187.155 2.28 1.75.19.125.155.156 2.125 1.78.156.158.19.156 1.936 1.844.188.156.156.188.844.875-13.53 12.875-.47-.5-.375-.344-1.22-1.156-.094-.094-.25-.22L144 156.44l-.156-.125-.188-.157-1.562-1.22-.188-.124-.156-.125-1.78-1.218-.314-.19-.03-.03-2.282-1.438L135 150.47l9.313-16.22zM173 166.625l.25.844.063.25.093.25.5 2.06.063.22.03.25.406 2.063.03.25.064.25.28 2.062.032.22v.25l.188 2.06.03.22v.22l.095 2.06v2.72l-.03.188-.095 2.062v.22l-.03.186-.19 2.064v.156l-.03.188-.156 1.156-18.53-2.406.124-.782.03-.344.126-1.343v-.064l.03-.312.064-1.688v-1.687l-.063-1.19-.125-1.593-.28-2.062-.314-1.563-.375-1.406-.03-.156-.125-.344 17.875-5.53zm-21.25 35.72l17.28 7.06-1.093 2.657-.062.157-.063.155-1.625 3.625-.062.125-.063.125-1.687 3.47-.03.093-.064.093-1.686 3.344-.063.063-.03.062-1.688 3.156-.03.064-.032.062-.313.563-16.343-9.064.25-.437.062-.126 1.53-2.875.095-.157 1.532-2.97.094-.218 1.47-3.03.124-.25 1.406-3.095.125-.313.97-2.343zm-16.47 34.093l17.69 6.03-.157.407-.032.063-1.03 3.5-.906 3.437-.03.22-.064.186-.656 3.314-.438 2.687-.03.22-.032.25-.188 1.906-18.594-2 .282-2.375v-.25l.03-.218.595-3.593.03-.22.03-.188.782-3.718.032-.22.062-.186.97-3.844.03-.188.063-.187 1.186-3.94.063-.186.06-.188.25-.72zm207.845 17.375l.875.093h.22l.186.03 1.906.25.22.033.187.03 1.874.344.187.03.22.032 1.813.406.218.063.19.063 1.78.468.22.063.186.06 1.72.564.218.062.22.063 1.655.624.217.094.188.093 1.625.69.22.092.186.094 1.594.75.188.125.218.095 1.53.844.19.092.187.125 1.218.75-9.75 15.938-1.124-.688-.094-.062-.75-.406-.406-.19-.75-.405-.187-.063-.22-.125-1.25-.5-.844-.312-1.28-.438-.282-.062-.156-.063-.938-.25-.344-.062-.062-.03-1-.22-1.47-.28-.218-.033-.187-.03-1.44-.188h-.06l-.5-.033 1.655-18.625zm-21.22 1.5l2.376 11.875 1.47 6.437-.188.03-2 .44-.156.03-.094.03-2 .533-.218.062-2.094.594-.22.062-2.155.688-.22.062-2.217.75-.22.094-2.312.844-.187.062-2.158.844-6.812-17.406 2.344-.906.094-.063.125-.03 2.687-.97.094-.063.125-.03 2.624-.876.125-.062.092-.03 2.594-.814.125-.03.095-.033 2.563-.718.093-.033.126-.03 2.5-.657.125-.03.126-.032 2.438-.532.125-.03.124-.032.062-.03zM284 271.156l10.97 15.156-1.72 1.22-.094.093-.094.063-3.156 2.156-.094.062-.125.063-3.218 2.092-.095.063-.094.063-3.28 2-.094.062-.125.063-3.31 1.906-.095.06-.125.064-1.063.594-8.937-16.407.875-.5.188-.092 2.937-1.688.22-.125 2.874-1.75.187-.125 2.814-1.844.22-.125 2.936-2.03 1.5-1.094zm-133.53 2.72l.124.437.062.28.47 1.376.06.124.908 2.187.062.19.594 1.186.125.22.844 1.5.124.187.97 1.437.092.125L156 284.53l.094.095 1.28 1.406-13.81 12.595-1.376-1.5-.22-.22-.187-.25-1.624-2.03-.187-.25-.19-.28-1.468-2.158-.187-.25-.156-.28-1.345-2.282-.156-.28-.157-.283-1.188-2.375-.125-.312-.125-.28-1.03-2.5-.126-.314-.095-.31-.875-2.595-.094-.313-.094-.312-.187-.72 18.094-4.655zm230.31 3.312l.845 1.312.063.156.093.125.97 1.69.063.124.093.125.938 1.75.062.124.063.156.905 1.78.063.126.062.125.844 1.876.062.125.063.095.81 1.938.033.125.062.093.78 1.97.033.125.062.125.75 2.03.03.095.033.094.718 2.092.033.094.03.125.157.5-17.813 5.626-.093-.312-.094-.22-.563-1.655-.062-.22-.594-1.594-.092-.22-.594-1.53-.094-.22-.625-1.436-.094-.25-.624-1.375-.125-.25-.655-1.313-.125-.25-.656-1.218-.156-.25-.657-1.156-.186-.282-.656-1.062 15.843-9.906zm-127.405 10.906l6.97 17.344-3 1.218-.095.03-.094.033-3.594 1.342-.093.063-.126.03-3.594 1.25-.094.033-.125.03-3.624 1.188-.094.03-.093.033-3.657 1.092-.094.032-.095.03-.188.032-4.968-18 .186-.062 3.25-.97.188-.062 3.22-1.03.217-.063 3.407-1.22v.03l3.188-1.217.22-.094 2.78-1.126zm-83.75 6.156l.25.125.063.03 2.218.876.375.126 1.97.688.25.062.156.063 2.094.592.125.032.22.062 2.56.625 2.314.5.186.033.156.03 2.75.438-1.468 8.72-.094.5-1.22 9.28-.186-.03-.156-.03-3.063-.533-.188-.03-.156-.032-3.03-.625-.156-.03-.188-.033-2.937-.718-.157-.064-.188-.062-2.844-.813-.186-.06-.22-.064-2.75-.937-.186-.064-.22-.094-2.655-1.03-.188-.094-.22-.094-.655-.28 7.625-17.064zm49.938 3.53l2.843 18.47-3.344.5-.125.03h-.125l-3.562.47h-.125l-.094.03-3.56.345-.126.03h-.125l-3.5.283h-.251l-3.47.187h-.25l-1.156.03-.406-18.686.906-.033h.25l2.97-.156 3.25-.217v-.032l3.31-.31.19-.033h.06l3.095-.406.124-.03h.094l3.125-.47zm174.5 18l.375 2.376.03.125v.158l.72 5.218v.125l.03.126.563 5.406v.219l.47 5.564-18.625 1.5-.438-5.344-.03-.22-.5-4.905v-.063l-.032-.218-.625-4.656-.03-.282-.376-2.125 18.47-3zM326.5 346.595c18.893 3.46 44.913 16.187 68.875 33.875 7.46-9.835 14.425-20.4 21.313-31.095l30.062 12.97c-4.686 12.21-14.99 25.518-28.563 37.186 17.017 16.166 30.87 34.515 37 52.94-13.806-18.108-31.07-31.73-50.28-42.814-23.387 15.846-52.682 25.93-79.626 20.438 22.915-4.383 40.644-16.56 55.814-32.594-16.462-7.504-33.798-13.877-51.25-20.094l-3.344-30.812z" fill="#fff"/></svg>

<?xml version="1.0" encoding="UTF-8" standalone="no"?>
<!DOCTYPE svg PUBLIC "-//W3C//DTD SVG 1.1//EN" "http://www.w3.org/Graphics/SVG/1.1/DTD/svg11.dtd">
<svg width="100%" height="100%" viewBox="0 0 512 512" version="1.1" xmlns="http://www.w3.org/2000/svg" xmlns:xlink="http://www.w3.org/1999/xlink" xml:space="preserve" xmlns:serif="http://www.serif.com/" style="fill-rule:evenodd;clip-rule:evenodd;stroke-linejoin:round;stroke-miterlimit:2;">
    <path d="M242.563,27.656C232.501,27.689 222.437,27.861 212.375,28.156L218.469,93.75L157.374,31.187C126.118,33.757 94.88,37.842 63.624,43.719L97.874,72.124L49.811,71.561C84.969,171.729 56.747,254.136 49.499,363.561L145.249,469.405C155.249,468.079 165.105,466.982 174.812,466.061L196.342,423.905L214.874,452.749L256.374,419.155L257.187,462.249C340.13,462.007 414.921,471.347 492.874,470.062C464.724,397.052 461.744,326.5 460.999,260.905L427.749,241.78L460.437,207.906C460.007,186.573 459.095,165.9 456.812,145.969L399.374,146.687L449.624,105.03C445.781,89.553 440.572,74.63 433.499,60.312L403.969,36.406C350.169,30.918 296.362,27.482 242.561,27.656L242.563,27.656ZM301.281,64.626L308.376,81.25L332.97,138.875L347.062,119.125L355.406,107.437L362.719,119.813L403.374,188.937L387.249,198.407L353.874,141.719L311.436,201.124L296.249,190.249L320.249,156.655L298.279,105.249L273.719,145.312L285.686,167.937L269.156,176.687L250.906,142.187L226.061,200.374L208.874,193.03L241.404,116.844L249.094,98.814L258.249,116.124L263.562,126.156L291.812,80.031L301.28,64.626L301.281,64.626ZM106.439,120.876L106.532,120.876L106.658,120.906L106.752,120.936L111.532,122.062L111.627,122.094L111.752,122.124L116.282,123.314L116.408,123.344L116.533,123.374L120.815,124.624L120.941,124.656L121.065,124.686L125.159,126L125.284,126.03L125.41,126.094L125.63,126.156L119.785,142.686L119.442,143.781L119.412,143.781L119.192,143.721L115.63,142.564L115.38,142.501L111.567,141.376L111.317,141.313L107.255,140.251L107.035,140.188L102.692,139.188L102.599,139.158L102.474,139.126L103.629,134.22L106.442,120.875L106.439,120.876ZM144.313,134.25L146.97,135.78L147.156,135.875L147.312,136L149.969,137.656L150.124,137.781L150.312,137.907L152.749,139.595L152.937,139.72L153.124,139.875L155.404,141.625L155.594,141.75L155.749,141.906L157.874,143.686L158.03,143.844L158.22,144L160.156,145.844L160.344,146L160.5,146.188L161.344,147.063L147.814,159.938L147.344,159.438L146.969,159.094L145.749,157.938L145.655,157.844L145.405,157.624L144,156.44L143.844,156.315L143.656,156.158L142.094,154.938L141.906,154.814L141.75,154.689L139.97,153.471L139.656,153.281L139.626,153.251L137.344,151.813L135,150.47L144.313,134.25ZM173,166.625L173.25,167.469L173.313,167.719L173.406,167.969L173.906,170.029L173.969,170.249L173.999,170.499L174.405,172.562L174.435,172.812L174.499,173.062L174.779,175.124L174.811,175.344L174.811,175.594L174.999,177.654L175.029,177.874L175.029,178.094L175.124,180.154L175.124,182.874L175.094,183.062L174.999,185.124L174.999,185.344L174.969,185.53L174.779,187.594L174.779,187.75L174.749,187.938L174.593,189.094L156.063,186.688L156.187,185.906L156.217,185.562L156.343,184.219L156.343,184.155L156.373,183.843L156.437,182.155L156.437,180.468L156.374,179.278L156.249,177.685L155.969,175.623L155.655,174.06L155.28,172.654L155.25,172.498L155.125,172.154L173,166.624L173,166.625ZM151.75,202.345L169.03,209.405L167.937,212.062L167.875,212.219L167.812,212.374L166.187,215.999L166.125,216.124L166.062,216.249L164.375,219.719L164.345,219.812L164.281,219.905L162.595,223.249L162.532,223.312L162.502,223.374L160.814,226.53L160.784,226.594L160.752,226.656L160.439,227.219L144.096,218.155L144.346,217.718L144.408,217.592L145.938,214.717L146.033,214.56L147.565,211.59L147.659,211.372L149.129,208.342L149.253,208.092L150.659,204.997L150.784,204.684L151.754,202.341L151.75,202.345ZM135.28,236.438L152.97,242.468L152.813,242.875L152.781,242.938L151.751,246.438L150.845,249.875L150.815,250.095L150.751,250.281L150.095,253.595L149.657,256.282L149.627,256.502L149.595,256.752L149.407,258.658L130.813,256.658L131.095,254.283L131.095,254.033L131.125,253.815L131.72,250.222L131.75,250.002L131.78,249.814L132.562,246.096L132.594,245.876L132.656,245.69L133.626,241.846L133.656,241.658L133.719,241.471L134.905,237.531L134.968,237.345L135.028,237.157L135.278,236.437L135.28,236.438ZM343.125,253.813L344,253.906L344.22,253.906L344.406,253.936L346.312,254.186L346.532,254.219L346.719,254.249L348.593,254.593L348.78,254.623L349,254.655L350.813,255.061L351.031,255.124L351.221,255.187L353.001,255.655L353.221,255.718L353.407,255.778L355.127,256.342L355.345,256.404L355.565,256.467L357.22,257.091L357.437,257.185L357.625,257.278L359.25,257.968L359.47,258.06L359.656,258.154L361.25,258.904L361.438,259.029L361.656,259.124L363.186,259.968L363.376,260.06L363.563,260.185L364.781,260.935L355.031,276.873L353.907,276.185L353.813,276.123L353.063,275.717L352.657,275.527L351.907,275.122L351.72,275.059L351.5,274.934L350.25,274.434L349.406,274.122L348.126,273.684L347.844,273.622L347.688,273.559L346.75,273.309L346.406,273.247L346.344,273.217L345.344,272.997L343.874,272.717L343.656,272.684L343.469,272.654L342.029,272.466L341.969,272.466L341.469,272.433L343.124,253.808L343.125,253.813ZM321.905,255.313L324.281,267.188L325.751,273.625L325.563,273.655L323.563,274.095L323.407,274.125L323.313,274.155L321.313,274.688L321.095,274.75L319.001,275.344L318.781,275.406L316.626,276.094L316.406,276.156L314.189,276.906L313.969,277L311.657,277.844L311.47,277.906L309.312,278.75L302.5,261.344L304.844,260.438L304.938,260.375L305.063,260.345L307.75,259.375L307.844,259.312L307.969,259.282L310.593,258.406L310.718,258.344L310.81,258.314L313.404,257.5L313.529,257.47L313.624,257.437L316.187,256.719L316.28,256.686L316.406,256.656L318.906,255.999L319.031,255.969L319.157,255.937L321.595,255.405L321.72,255.375L321.844,255.343L321.906,255.313L321.905,255.313ZM284,271.156L294.97,286.312L293.25,287.532L293.156,287.625L293.062,287.688L289.906,289.844L289.812,289.906L289.687,289.969L286.469,292.061L286.374,292.124L286.28,292.187L283,294.187L282.906,294.249L282.781,294.312L279.471,296.218L279.376,296.278L279.251,296.342L278.188,296.936L269.251,280.529L270.126,280.029L270.314,279.937L273.251,278.249L273.471,278.124L276.345,276.374L276.532,276.249L279.346,274.405L279.566,274.28L282.502,272.25L284.002,271.156L284,271.156ZM150.47,273.876L150.594,274.313L150.656,274.593L151.126,275.969L151.186,276.093L152.094,278.28L152.156,278.47L152.75,279.656L152.875,279.876L153.719,281.376L153.843,281.563L154.813,283L154.905,283.125L156,284.53L156.094,284.625L157.374,286.031L143.564,298.626L142.188,297.126L141.968,296.906L141.781,296.656L140.157,294.626L139.97,294.376L139.78,294.096L138.312,291.938L138.125,291.688L137.969,291.408L136.624,289.126L136.468,288.846L136.311,288.563L135.123,286.188L134.998,285.876L134.873,285.596L133.843,283.096L133.717,282.782L133.622,282.472L132.747,279.877L132.653,279.564L132.559,279.252L132.372,278.532L150.466,273.877L150.47,273.876ZM380.78,277.188L381.625,278.5L381.688,278.656L381.781,278.781L382.751,280.471L382.814,280.595L382.907,280.72L383.845,282.47L383.907,282.594L383.97,282.75L384.875,284.53L384.938,284.656L385,284.781L385.844,286.657L385.906,286.782L385.969,286.877L386.779,288.815L386.812,288.94L386.874,289.033L387.654,291.003L387.687,291.128L387.749,291.253L388.499,293.283L388.529,293.378L388.562,293.472L389.28,295.564L389.313,295.658L389.343,295.783L389.5,296.283L371.687,301.909L371.594,301.597L371.5,301.377L370.937,299.722L370.875,299.502L370.281,297.908L370.189,297.688L369.595,296.158L369.501,295.938L368.876,294.502L368.782,294.252L368.158,292.877L368.033,292.627L367.378,291.314L367.253,291.064L366.597,289.846L366.441,289.596L365.784,288.44L365.598,288.158L364.942,287.096L380.785,277.19L380.78,277.188ZM253.375,288.094L260.345,305.438L257.345,306.656L257.25,306.686L257.156,306.719L253.562,308.061L253.469,308.124L253.343,308.154L249.749,309.404L249.655,309.437L249.53,309.467L245.906,310.655L245.812,310.685L245.719,310.718L242.062,311.81L241.968,311.842L241.873,311.872L241.685,311.904L236.717,293.904L236.903,293.842L240.153,292.872L240.341,292.81L243.561,291.78L243.778,291.717L247.185,290.497L247.185,290.527L250.373,289.31L250.593,289.216L253.373,288.09L253.375,288.094ZM169.625,294.25L169.875,294.375L169.938,294.405L172.156,295.281L172.531,295.407L174.501,296.095L174.751,296.157L174.907,296.22L177.001,296.812L177.126,296.844L177.346,296.906L179.906,297.531L182.22,298.031L182.406,298.064L182.562,298.094L185.312,298.532L183.844,307.252L183.75,307.752L182.53,317.032L182.344,317.002L182.188,316.972L179.125,316.439L178.937,316.409L178.781,316.377L175.751,315.752L175.595,315.722L175.407,315.689L172.47,314.971L172.313,314.907L172.125,314.845L169.281,314.032L169.095,313.972L168.875,313.908L166.125,312.971L165.939,312.907L165.719,312.813L163.064,311.783L162.876,311.689L162.656,311.595L162.001,311.315L169.626,294.251L169.625,294.25ZM219.563,297.78L222.406,316.25L219.062,316.75L218.937,316.78L218.812,316.78L215.25,317.25L215.125,317.25L215.031,317.28L211.471,317.625L211.345,317.655L211.22,317.655L207.72,317.938L207.469,317.938L203.999,318.125L203.749,318.125L202.593,318.155L202.187,299.469L203.093,299.436L203.343,299.436L206.313,299.28L209.563,299.063L209.563,299.031L212.873,298.721L213.063,298.688L213.123,298.688L216.218,298.282L216.342,298.252L216.436,298.252L219.561,297.782L219.563,297.78ZM394.063,315.78L394.438,318.156L394.468,318.281L394.468,318.439L395.188,323.657L395.188,323.782L395.218,323.908L395.781,329.314L395.781,329.533L396.251,335.097L377.626,336.597L377.188,331.253L377.158,331.033L376.658,326.128L376.658,326.065L376.626,325.847L376.001,321.191L375.971,320.909L375.595,318.784L394.065,315.784L394.063,315.78ZM326.5,346.595C345.393,350.055 371.413,362.782 395.375,380.47C402.835,370.635 409.8,360.07 416.688,349.375L446.75,362.345C442.064,374.555 431.76,387.863 418.187,399.531C435.204,415.697 449.057,434.046 455.187,452.471C441.381,434.363 424.117,420.741 404.907,409.657C381.52,425.503 352.225,435.587 325.281,430.095C348.196,425.712 365.925,413.535 381.095,397.501C364.633,389.997 347.297,383.624 329.845,377.407L326.501,346.595L326.5,346.595Z" style="fill:white;fill-rule:nonzero;"/>
</svg>
